build/img/sprite_auto.svg

<svg xmlns="http://www.w3.org/2000/svg" xmlns:xlink="http://www.w3.org/1999/xlink"><defs>
<clipPath id="clip0">
<rect width="12" height="7.4" fill="white" transform="translate(0 12) rotate(-90)"/>
</clipPath>
</defs><symbol id="icon-arrow" viewBox="0 0 8 12">
<g clip-path="url(#clip0)">
<path fill-rule="evenodd" clip-rule="evenodd" d="M0 1.4L4.6 6L0 10.6L1.4 12L7.4 6L1.4 0L0 1.4Z" fill="#2C2E3F" fill-opacity="0.5"/>
</g>

</symbol><symbol id="icon-close" viewBox="0 0 24 25">
<path d="M1 23.7213L23 1M23 23.7213L1 1" stroke-linecap="round" stroke-linejoin="round"/>
</symbol><symbol id="icon-mail" viewBox="0 0 26 20">
<path d="M24.2273 0H1.77273C0.768182 0 0 0.764706 0 1.76471V18.2353C0 19.2353 0.768182 20 1.77273 20H24.2273C25.2318 20 26 19.2353 26 18.2353V1.76471C26 0.764706 25.2318 0 24.2273 0ZM24.2273 17L19.5591 12.3529C19.2045 12 18.6727 12 18.3182 12.3529C17.9636 12.7059 17.9636 13.2353 18.3182 13.5882L22.9864 18.2353H3.01362L7.68182 13.5882C8.03636 13.2353 8.03636 12.7059 7.68182 12.3529C7.32727 12 6.79547 12 6.44092 12.3529L1.77273 17V5.70585L12.4091 13.7059C12.5864 13.8236 12.7636 13.8823 12.9409 13.8823C13.1182 13.8823 13.2954 13.8236 13.4727 13.7059L24.2273 5.70585V17ZM24.2273 1.76471V3.4706L12.9409 11.8235L1.77273 3.4706V1.76471H24.2273Z"/>
</symbol><symbol id="icon-menu" viewBox="0 0 30 30">
<path fill-rule="evenodd" clip-rule="evenodd" d="M3.75 21H26.25V20H3.75V21ZM3.75 14.75H26.25V13.75H3.75V14.75ZM3.75 7.5V8.5H26.25V7.5H3.75Z"/>
</symbol><symbol id="icon-phone" viewBox="0 0 17 24">
<path d="M1.45641 6.62432C1.37185 5.42623 1.63759 4.24606 2.3412 3.29684C2.9512 2.43632 3.74541 1.96636 4.70269 1.69172C5.50898 1.4525 6.03745 1.74561 6.26998 2.64204C6.60217 3.98224 7.07628 5.3225 7.24841 6.73361C7.30277 7.35485 6.90114 8.23322 6.46629 8.6856C5.37614 9.75888 5.60263 10.5399 6.43006 12.1643C6.68675 12.6881 7.09442 13.5934 7.88864 14.7919C8.71607 15.9992 9.15395 16.6472 10.2169 16.0975C11.3977 15.5035 12.2583 15.8855 13.1492 16.8444C13.7531 17.5369 14.4175 18.1318 15.0215 18.8243C15.8942 19.8542 15.8549 20.5641 15.1725 21.2915C13.9434 22.6309 11.9141 23.0736 10.4042 22.1766C9.5707 21.6881 8.74024 21.0487 8.0789 20.303C5.16477 16.9825 3.06297 13.1212 1.79765 8.76321C1.59532 8.02654 1.50171 7.28104 1.45641 6.62432Z" stroke-width="2" stroke-miterlimit="10"/>
</symbol></svg>

<svg xmlns="http://www.w3.org/2000/svg" xmlns:xlink="http://www.w3.org/1999/xlink"><defs><clipPath id="clip0"><path fill="#fff" transform="rotate(-90 6 6)" d="M0 0h12v7.4H0z"/></clipPath></defs><symbol id="icon-arrow"><g clip-path="url(#clip0)"><path fill-rule="evenodd" clip-rule="evenodd" d="M0 1.4L4.6 6 0 10.6 1.4 12l6-6-6-6L0 1.4z" fill="#2C2E3F" fill-opacity=".5"/></g></symbol><symbol id="icon-close"><path d="M1 23.721L23 1m0 22.721L1 1"/></symbol><symbol id="icon-mail"><path d="M24.227 0H1.773C.768 0 0 .765 0 1.765v16.47C0 19.235.768 20 1.773 20h22.454C25.232 20 26 19.235 26 18.235V1.765C26 .765 25.232 0 24.227 0zm0 17l-4.668-4.647a.86.86 0 00-1.24 0 .85.85 0 000 1.235l4.667 4.647H3.014l4.668-4.647a.85.85 0 000-1.235.86.86 0 00-1.241 0L1.773 17V5.706l10.636 8a.955.955 0 00.532.176.955.955 0 00.532-.176l10.754-8V17zm0-15.235V3.47l-11.286 8.352L1.773 3.471V1.765h22.454z"/></symbol><symbol id="icon-menu"><path fill-rule="evenodd" clip-rule="evenodd" d="M3.75 21h22.5v-1H3.75v1zm0-6.25h22.5v-1H3.75v1zm0-7.25v1h22.5v-1H3.75z"/></symbol><symbol id="icon-phone"><path d="M1.456 6.624c-.084-1.198.182-2.378.885-3.327.61-.86 1.404-1.33 2.362-1.605.806-.24 1.334.054 1.567.95.332 1.34.806 2.68.978 4.092.055.62-.347 1.5-.782 1.952-1.09 1.073-.863 1.854-.036 3.478.257.524.664 1.43 1.459 2.628.827 1.207 1.265 1.855 2.328 1.306 1.18-.594 2.041-.212 2.932.746.604.693 1.269 1.288 1.873 1.98.872 1.03.833 1.74.15 2.467-1.229 1.34-3.258 1.783-4.768.886-.833-.489-1.664-1.128-2.325-1.874-2.914-3.32-5.016-7.182-6.281-11.54a10.989 10.989 0 01-.342-2.139z"/></symbol></svg>
